packages/kaspersky-hexa-ui-icons/src/iconsSVGs/16/Gmail2Color.svg

<svg width="16" height="16" viewBox="0 0 16 16" fill="none" xmlns="http://www.w3.org/2000/svg">
<path d="M13.8512 2.75C14.482 2.75 14.9981 3.28503 14.9981 3.93892V4.28359L13.4047 5.4635L7.97996 9.33726L2.55521 5.4242V13.25H2.14691C1.51613 13.25 1 12.715 1 12.0611V3.93925C1 3.28535 1.51613 2.75032 2.14691 2.75032L7.97996 7.23352L13.8512 2.75Z" fill="#E75A4D"/>
<path d="M2.14691 2.75032L7.97996 7.23352L13.8512 2.75L2.14691 2.75032Z" fill="url(#paint0_linear_430_80)"/>
<path d="M2.55521 5.4242V13.25L13.4051 13.25L13.4047 5.4635L7.97996 9.33726L2.55521 5.4242Z" fill="#E7E4D7"/>
<path d="M2.55521 13.25L7.97996 9.33726L7.95537 9.31926L2.55518 13.164L2.55521 13.25Z" fill="#B8B7AE"/>
<path d="M13.4047 5.4635L13.4086 13.25L7.97996 9.33726L13.4047 5.4635Z" fill="#B7B6AD"/>
<path d="M14.9981 4.28359L15.0001 12.0621C14.9727 12.9266 14.6118 13.2355 13.4086 13.25L13.4047 5.4635L14.9981 4.28359Z" fill="#B2392F"/>
<path d="M2.14691 2.75032L7.97996 7.23352L13.8512 2.75L2.14691 2.75032Z" fill="url(#paint1_linear_430_80)"/>
<path d="M2.14691 2.75032L7.97996 7.23352L13.8512 2.75L2.14691 2.75032Z" fill="url(#paint2_linear_430_80)"/>
<path d="M2.14691 2.75032L7.97996 7.23352L13.8512 2.75L2.14691 2.75032Z" fill="url(#paint3_linear_430_80)"/>
<path d="M2.14691 2.75032L7.97996 7.23352L13.8512 2.75L2.14691 2.75032Z" fill="url(#paint4_linear_430_80)"/>
<path d="M2.14691 2.75032L7.97996 7.23352L13.8512 2.75L2.14691 2.75032Z" fill="url(#paint5_linear_430_80)"/>
<path d="M2.14691 2.75032L7.97996 7.23352L13.8512 2.75L2.14691 2.75032Z" fill="url(#paint6_linear_430_80)"/>
<path d="M2.14691 2.75032L7.97996 7.23352L13.8512 2.75L2.14691 2.75032Z" fill="url(#paint7_linear_430_80)"/>
<path d="M2.14691 2.75032L7.97996 7.23352L13.8512 2.75L2.14691 2.75032Z" fill="#F7F5ED"/>
<defs>
<linearGradient id="paint0_linear_430_80" x1="3.51891" y1="8.00091" x2="12.4641" y2="8.00091" gradientUnits="userSpaceOnUse">
<stop stop-color="#F8F6EF"/>
<stop offset="1" stop-color="#E7E4D6"/>
</linearGradient>
<linearGradient id="paint1_linear_430_80" x1="3.51891" y1="8.00091" x2="12.4641" y2="8.00091" gradientUnits="userSpaceOnUse">
<stop stop-color="#F8F6EF"/>
<stop offset="1" stop-color="#E7E4D6"/>
</linearGradient>
<linearGradient id="paint2_linear_430_80" x1="3.51891" y1="8.00091" x2="12.4641" y2="8.00091" gradientUnits="userSpaceOnUse">
<stop stop-color="#F8F6EF"/>
<stop offset="1" stop-color="#E7E4D6"/>
</linearGradient>
<linearGradient id="paint3_linear_430_80" x1="3.51891" y1="8.00091" x2="12.4641" y2="8.00091" gradientUnits="userSpaceOnUse">
<stop stop-color="#F8F6EF"/>
<stop offset="1" stop-color="#E7E4D6"/>
</linearGradient>
<linearGradient id="paint4_linear_430_80" x1="3.51891" y1="8.00091" x2="12.4641" y2="8.00091" gradientUnits="userSpaceOnUse">
<stop stop-color="#F8F6EF"/>
<stop offset="1" stop-color="#E7E4D6"/>
</linearGradient>
<linearGradient id="paint5_linear_430_80" x1="3.51891" y1="8.00091" x2="12.4641" y2="8.00091" gradientUnits="userSpaceOnUse">
<stop stop-color="#F8F6EF"/>
<stop offset="1" stop-color="#E7E4D6"/>
</linearGradient>
<linearGradient id="paint6_linear_430_80" x1="3.51891" y1="8.00091" x2="12.4641" y2="8.00091" gradientUnits="userSpaceOnUse">
<stop stop-color="#F8F6EF"/>
<stop offset="1" stop-color="#E7E4D6"/>
</linearGradient>
<linearGradient id="paint7_linear_430_80" x1="3.51891" y1="8.00091" x2="12.4641" y2="8.00091" gradientUnits="userSpaceOnUse">
<stop stop-color="#F8F6EF"/>
<stop offset="1" stop-color="#E7E4D6"/>
</linearGradient>
</defs>
</svg>

<svg xmlns="http://www.w3.org/2000/svg" width="16" height="16" fill="none" viewBox="0 0 16 16"><path fill="#e75a4d" d="M13.8512 2.75c.6308 0 1.1469.535 1.1469 1.189v.3446l-1.5934 1.1799L7.98 9.3373 2.5552 5.4242V13.25H2.147C1.5161 13.25 1 12.715 1 12.0611V3.9393c0-.654.5161-1.189 1.147-1.189L7.98 7.2335z"/><path fill="url(#a)" d="M2.147 2.7503 7.98 7.2335 13.8512 2.75z"/><path fill="#e7e4d7" d="M2.5552 5.4242V13.25h10.8499l-.0004-7.7865L7.98 9.3373z"/><path fill="#b8b7ae" d="M2.5552 13.25 7.98 9.3373l-.0246-.018-5.4002 3.8447z"/><path fill="#b7b6ad" d="m13.4047 5.4635.0039 7.7865L7.98 9.3373z"/><path fill="#b2392f" d="m14.9981 4.2836.002 7.7785c-.0274.8645-.3883 1.1734-1.5915 1.1879l-.0039-7.7865z"/><path fill="url(#b)" d="M2.147 2.7503 7.98 7.2335 13.8512 2.75z"/><path fill="url(#c)" d="M2.147 2.7503 7.98 7.2335 13.8512 2.75z"/><path fill="url(#d)" d="M2.147 2.7503 7.98 7.2335 13.8512 2.75z"/><path fill="url(#e)" d="M2.147 2.7503 7.98 7.2335 13.8512 2.75z"/><path fill="url(#f)" d="M2.147 2.7503 7.98 7.2335 13.8512 2.75z"/><path fill="url(#g)" d="M2.147 2.7503 7.98 7.2335 13.8512 2.75z"/><path fill="url(#h)" d="M2.147 2.7503 7.98 7.2335 13.8512 2.75z"/><path fill="#f7f5ed" d="M2.147 2.7503 7.98 7.2335 13.8512 2.75z"/><defs><linearGradient id="a" x1="4" x2="12" y1="8" y2="8" gradientUnits="userSpaceOnUse"><stop stop-color="#f8f6ef"/><stop offset="1" stop-color="#e7e4d6"/></linearGradient><linearGradient id="b" x1="4" x2="12" y1="8" y2="8" gradientUnits="userSpaceOnUse"><stop stop-color="#f8f6ef"/><stop offset="1" stop-color="#e7e4d6"/></linearGradient><linearGradient id="c" x1="4" x2="12" y1="8" y2="8" gradientUnits="userSpaceOnUse"><stop stop-color="#f8f6ef"/><stop offset="1" stop-color="#e7e4d6"/></linearGradient><linearGradient id="d" x1="4" x2="12" y1="8" y2="8" gradientUnits="userSpaceOnUse"><stop stop-color="#f8f6ef"/><stop offset="1" stop-color="#e7e4d6"/></linearGradient><linearGradient id="e" x1="4" x2="12" y1="8" y2="8" gradientUnits="userSpaceOnUse"><stop stop-color="#f8f6ef"/><stop offset="1" stop-color="#e7e4d6"/></linearGradient><linearGradient id="f" x1="4" x2="12" y1="8" y2="8" gradientUnits="userSpaceOnUse"><stop stop-color="#f8f6ef"/><stop offset="1" stop-color="#e7e4d6"/></linearGradient><linearGradient id="g" x1="4" x2="12" y1="8" y2="8" gradientUnits="userSpaceOnUse"><stop stop-color="#f8f6ef"/><stop offset="1" stop-color="#e7e4d6"/></linearGradient><linearGradient id="h" x1="4" x2="12" y1="8" y2="8" gradientUnits="userSpaceOnUse"><stop stop-color="#f8f6ef"/><stop offset="1" stop-color="#e7e4d6"/></linearGradient></defs></svg>
